X:1
T:Nithsdall's Welcome Hame
T:Nithsdall's Welcome Hame
T:Robert Riddell of Glenriddell
C:Robert Riddell of Glenriddell
L:1/8
M:4/4
K:D
V:1 treble 
V:1
 (f/e/) | d>D D>E D>E D>F | E>D E>F e2 e>f | g>f e>d B>A B>d | A>d F>d E2 D :| A | %6
 d>e d>c B>A B>d | A>B d>f (e>d) e3 f | A>d d>c B>A B>d | A>d F>d E2 D>A | d>e d>c B>A B>d | %11
 A>B d>f (e>d) e>f | g>f e>d B>A B>d | A>B d>f Te2 d || %14

